packages/dnb-ui-lib/assets/icons/information.svg

<svg width="16" height="16" viewBox="0 0 16 16" fill="none" xmlns="http://www.w3.org/2000/svg">
<path fill-rule="evenodd" clip-rule="evenodd" d="M7.02021 1.75C6.3722 1.75 5.84689 2.27531 5.84689 2.92332C5.84689 3.57133 6.3722 4.09665 7.02021 4.09665C7.66822 4.09665 8.19353 3.57133 8.19353 2.92332C8.19353 2.27531 7.66822 1.75 7.02021 1.75ZM5.75 5.98064C5.33579 5.98064 5 6.31642 5 6.73064C5 7.14485 5.33579 7.48064 5.75 7.48064H6.59622C6.64936 7.48064 6.69244 7.52371 6.69244 7.57685V11.8079C6.69244 13.1569 7.78595 14.2504 9.13487 14.2504H9.98109C10.3953 14.2504 10.7311 13.9146 10.7311 13.5004C10.7311 13.0862 10.3953 12.7504 9.98109 12.7504H9.13487C8.61438 12.7504 8.19244 12.3284 8.19244 11.8079V7.57685C8.19244 6.69529 7.47779 5.98064 6.59622 5.98064H5.75Z" fill="black"/>
</svg>

<svg width="16" height="16" viewBox="0 0 16 16" fill="none" xmlns="http://www.w3.org/2000/svg"><path fill-rule="evenodd" clip-rule="evenodd" d="M7.02 1.75a1.173 1.173 0 100 2.347 1.173 1.173 0 000-2.347zM5.75 5.98a.75.75 0 100 1.5h.846c.053 0 .096.044.096.097v4.23a2.442 2.442 0 002.443 2.443h.846a.75.75 0 000-1.5h-.846a.942.942 0 01-.943-.942V7.577c0-.882-.714-1.596-1.596-1.596H5.75z" fill="#000"/></svg>
